X:1
T:Christ der ist erstanden
T:Stephan Mahu
T:Source : DDT 34---Leipzig---Breitkopf & Härtel---L.Wolf---1908. First print : Newe Deudsche Geistliche Gesenge---Wittemberg---G.Rhau---1544. Editor : André Vierendeels ( 10/08/17).     
T:Notes : Original clefs : G2, C3, C3, F4 Original note values have been halved Editorial accidentals above yhe staff
T:Christ der ist erstanden
T:©
T:©
T:©
T:©
T:©
C:Stephan Mahu
Z:©
%%score [ 1 2 [ 3 4 ] ]
L:1/8
Q:1/4=120
M:2/2
K:F
V:1 treble nm="Soprano" snm="S"
V:2 treble nm="Alto" snm="A"
V:3 treble-8 nm="Tenor 1" snm="T 1"
V:4 treble-8 nm="Tenor 2" snm="T 2"
V:1
 G8 | d3 c B4 | A2 f3 edc | d4 c3 B | A4 G4 | z4 d4 | e2 e2 f3 e/d/ | f2 e3 d d2- | d2 c2 d2 B2- | %9
w: Christ|der _ _|ist _ _ _ _|_ er- *|stan- den|von|sei- ner Mar- * *|* ter _ al-||
 BA A4 G2 | A4 z2 A2 | A2 c3 B G2 | c2 B2 A4- | A2 d3 cBA | G2 c2 d2 B2- | Bc d2 G2 c2- | %16
w: |le, von|sei- * * ner|Mar- ter al-||* le. Des sol-|* * len wir al-|
 cB G2 A2 c2 | cBAG F2 D2 | d3 c B4 | z4 G4 | d6 A2- | A2 c3 B GA | Bc d3 c A2 | z2 A3 B c2 | %24
w: * * * * le|froh _ _ _ _ _|sein, _ _|Christ|will un-|* * ser Trost _|_ _ _ _ sein,|Christ _ _|
 G3 A B2 G2 | A2 F2 G4 | F3 G AF B2- | BA F3 G A2 |"^-natural""^b" AB c3 B A2- |"^#" AG G4 F2 | %30
w: will _ _ un-|* ser Trost|sein, _ _ _ Christ|_ _ will _ _|un- ser Trost _ _|_ _ _ _|
 G4 c3 B | AG A2 F2 A2 | G2 c3 BAG | F3 G A2 F2 | G2 B4 G2 | A3 B c4 | B4 A3 B | c2 A3 G G2 | %38
w: sein, Hal- *|* * * le- *|* lu- * * *||ia, Hal- le-|lu- * *|||
"^#" AG G4 F2 |[M:3/2] G4 B6 G2 | A3 B c6 B2 | G4 F2 G2 A2 B2 | c4 B4 A3 G | A4 F4 B4- | %44
w: |ia, Hal- *|le- * * *|* lu- * * *||* ia Hal-|
 B2 A2 A6 G2 |"^#""^-natural" G6 FE F4 | G12- | G12 |] %48
w: * * le- *|lu- * * *|ia.|_|
V:2
 z8 | z4 D4- | D4 A4- | A4 E3 D/E/ | F2 E4 G2- | GF E3 D D2- | D2 C2 D2 F2- | FGAG BAGF | %8
w: |Christ|_ der|_ ist _ _|_ er stan-||* * den von|_ _ _ _ _ _ _ _|
 ED E2 D2 F2 | E2 F3 E D2- | D2 C2 D4 | C4 z2 C2 | G4 E4 | F4 D2 G2- | G2 E2 F2 D2- | %15
w: * * * sei- ner|Mar- * * *|* ter al|le. Des|sol- len|wir al- *||
 D2 D2 E2 G2- | GFED CA, A2- | AGFE D3 E | F2 D2 G3 F | E2 D2 EFGE |"^#" F4 z2 D2 | A4 E4 | %22
w: * le froh sin,|_ _ _ _ _ _ froh|_ _ _ _ _ _|||sein, Christ|will un-|
 G4 F2 D2 | F4 E4- | E2 G3 F E2- | ED D4 C2 | D8 | z2 D4 C2 | F2 E2 G2 F2 | D8 | B,4 E4 | %31
w: ser Trost _|_ _|||sein,|Hal- le-|lu- * * *|ia,|Hal- le-|
 D2 F3 E D2- |"^-natural" D2 CB, C4 | D8 | D4 B,2 C2- | CB,A,G, F,2 C2 | D3 E F4 | E2 F2 ED D2 | %38
w: lu- * * *||ia,|Hal- le lu-||||
 D2 C2 D4 |[M:3/2] D6 C2 D2 E2 | F8 E4 | C4 D4 C4 | G6 F2 E4 | F4 D6 E2 | F2 D2 F6 E2 | D6 C2 D4 | %46
w: * * ia,|Hal- * * *|le- *||lu- * *|ia, Hal- *|* * le- *|lu- * *|
"^-natural""^-natural" B,6 G,2 B,3 C | D12 |] %48
w: |ia.|
V:3
 z8 | G8 | d8 | A8 | c8 | B4 A4 | G4 z4 | z8 | z8 | z4 d4 | e2 e2 f4- | f2 ed f2 e2- | ed d4 c2 | %13
w: |Christ|der|ist|er-|stan- *|den|||von|sei- ner Mar-|* * * * ter|_ _ al- *|
 d8 | z4 d4 | g8 | e8 | f8 | d6 c2 | B2 A4 G2 | A8 | z8 | G4 d4 | A4 c4- | c4 B4 | A4 G4 | %26
w: le.|Des|sol-|len|wir|al- le|froh _ _|sein,||Christ will|un- ser|_ Trost|_ sein,|
 z4 z2 G2 | d4 A4 | c8 | B4 A4 | G8 | F8 | G8 | A8 | G8 | c6 A2 | B3 c d4 | c4 B4 | A8 | %39
w: Christ|will un-|ser|Trost _|sein.|Hal-|le-|lu-|ia,|Hal- le|lu- * *|||
[M:3/2] G8 z4 | F8 G4- | G4 A8 | G8 c4 | A4 B6 c2 | d8 c4 | B4 A8 | G12- | G12 |] %48
w: ia,|Hal- le-|* lu-|ia, Hal-|le- * *|lu- *||ia.|_|
V:4
 z8 | z8 | z4 D4- | D4 A4- | A4 E4 | G6 F2 | E4 D4 | z4 G4 | A2 A2 B3 A | G2 F2 B4 | A4 D3 E | %11
w: ||Christ|_ der|_ ist|er- *|stan- den|von|se- ner Mar- *|* ter al-|le, von _|
 FG A2 F2 c2- | cB G2 A4 | D2 B4 G2 | c4 B3 A | G2 G2 c4- | c4 A4- | A4 B4- | B4 G4- | G2 F2 E4 | %20
w: _ _ sei- ner Mar-||ter al- *||le. Des sol-|* len|_ wir|_ al-|* le froh|
 D8 | z8 | z4 D4- | D4 A4 | E4 G4 | F4 E4 | D3 E FD G2- | GF D3 E F2- | FE C2 E2 F2 | G4 D4 | %30
w: sein,||Christ|_ will|un- ser|Trost _|sein, _ _ _ Christ|_ _ will- * *|* * * un- ser|Trost sein.|
 z4 C4 | D8 | E8 | D8 | G6 E2 | F3 G A4 | G3 F DEFG | A2 F2 G4 | F2 E2 D4 |[M:3/2] G6 A2 B4 | %40
w: Hal-|le-|lu-|ia,|Hal- le-|lu- * *||||ia, _ _|
 c4 F4 C4 | E4 D4 F4 | C4 G4 A4 | F4 G6 F2 | D6 E2 F4 | G4 D8 | G12- | G12 |] %48
w: _ Hal- le-|lu- * *|ia, Hal- le-|lu- * *|||ia.|_|

